X:61
T: Hapavaasti
M:3/4
L:1/8
C:Keith Murphy
K:G
V: 1 name="Vln I" snm="" clef=treble
%%MIDI channel 1
%%MIDI program 40
(D FD) |: "G" (FG) (GD) FD | "Em" (FG) (GD) FG | "Am" A2 (Ac) BG | "D" (AD) (DE) (EF) |
"G" (FG) (GD) (FD) | "Em" (FG) (GD) (FG) | "Am" A2 (AB) "D" AF |1 "G" G3 (D FD) :|2 "G" G3 (A Bc) |
|: "G/B" d2 (dc) BG | "C" c3 (B2 c) | "Am" A3 (c Bc) | "D" AD D(A Bc) | "Bm" d2 (dc) BG |
"C" c3 (B2 c) | "Am" A3 (B "D" AF) |1 "G" G3 (A Bc) :|2 "G" G3 (D FD) |]
V: 2 name="Vln II" snm="" clef=treble
%%MIDI channel 2
%%MIDI program 40
FA F |: (AB) BF AF | (AB) BF AB | c2 ce dB | cF (FG) (GA) |
(AB) BF AF | (AB) BF AB | c2 cd cA |1 B3 F AF :|2 B3 c de |
|: g2 ge dB | e3 d2 e | c3 e de | cF Fc de | f2 fe dB |
e3 d2 e | c3 d cB |1 B3 c de :|2 B3 F AF |]

